!!!!SEGMENT: pl-wumfc--r244--001_paderewski-ignacy-jan--6-melodies-op-18-polaly-sie-lzy-me-czyste-rzesiste.krn
!!!cenid: 18xx:3131
!!!COM: Paderewski, Ignacy Jan
!!!COM-rismID: pe30029943
!!!CDT: 1860/11/18-1941/06/29
!!!CNT: Polish
!!!GTL: 6 Mélodies op. 18
!!!OTL: Polały się łzy me czyste, rzęsiste
!!!OMV: 001
!!!PDT:
!!!AGN:
!!!SMS-siglum: PL-Wumfc
!!!SMS-shelfmark: R244
!!!SMS-shelfwork: 001-001 G
!!!SMS-variant:
!!!SMS-altvar:
!!!NIFC-rismSourceID: 1001155722
!!!NIFC-rismChildID: 1001155724
!!!NIFC-islandoraID: pl-wumfc:155
!!!URL-pdf-islandora: https://repozytorium.nifc.pl/islandora/object/pl-wumfc%3A155/datastream/PDF/view
!!!URL-scan: https://polish.musicsources.pl/pl/lokalizacje/galeria/rekopisy/4664 @EN{Scan on Polish Music Sources Website} @PL{Skany w portalu Dziedzictwo Muzyki Polskiej w otwartym dostępie}
!!!ONB-nifc: Nr I
!!!OMD: Andante molto
!!!AIN: 1 piano 1 vox
!!!key: g#
**kern	**kern	**dynam	**kern	**text	**dynam
*part2	*part2	*part2	*part1	*part1	*part1
*staff3	*staff2	*	*staff1	*staff1	*
*Ipiano	*Ipiano	*	*Ivox	*	*
*ICklav	*ICklav	*	*ICvox	*	*
*I"[Pianoforte]	*I"[Pianoforte]	*	*I"[Voce]	*	*
*I'[pf]	*I'[pf]	*	*I'[V]	*	*
*clefF4	*clefG2	*	*clefG2	*	*
*k[f#c#g#d#a#]	*k[f#c#g#d#a#]	*	*k[f#c#g#d#a#]	*	*
*g#:	*g#:	*	*g#:	*	*
*M4/4	*M4/4	*	*M4/4	*	*
=1	=1	=1	=1	=1	=1
2GG# 2GGG#\	(2G#< 2D#<'/	.	1r	.	.
2GG# 2GGG#\	2G#< 2D#<'/)	.	.	.	.
=2	=2	=2	=2	=2	=2
[1GG# [1GGG#	(2.G#< 2.D#</	.	8r	.	.
.	.	.	8g#/	Po-	.
.	.	.	8a#/	-la-	.
.	.	.	8b/	-ły	.
.	.	.	4dd#\	się	.
.	4A#< 4G#< 4E</	.	8cc##X\	łzy	.
.	.	.	8a#/	me	.
=3	=3	=3	=3	=3	=3
1GG#] 1GGG#]	2B< 2G#< 2D#</	.	4dd#\	czy-	.
!	!	!	!	!LO:MO:mod=-ste,	!
.	.	.	8b\	-ste	.
.	.	.	8dd#\	rzę-	.
.	2c##<X 2A#< 2G#< 2E</	.	(4cc##X\	-si-	.
.	.	.	8a#/)	.	.
!	!	!	!	!LO:MO:mod=-ste,	!
.	.	.	8b\	-ste	.
=4	=4	=4	=4	=4	=4
*2\right	*	*	*	*	*
!	!	!	!	!LO:MO:mod=łzy	!
2GG# 2GGG#\	2d#< 2B< 2G#< 2D#</)	.	4dd#\	Łzy	.
.	.	.	8b/	się	.
.	.	.	8g#/	po-	.
*2\left	*	*	*	*	*
[>2EE [2EEE\	[2g#< 2c#< 2G#<^/	.	(4.cc#\	-la-	.
.	.	.	8b\	.	.
=5	=5	=5	=5	=5	=5
4EE] 4EEE\]	4g#<] 4c#< 4G#</	.	8cc#\L	.	.
.	.	.	8b\J)	.	.
*2\right	*	*	*	*	*
!	!	!	!	!LO:MO:mod=-ły,	!
[>2.GG# [2.GGG#\	4d#< 4B< 4G#< 4D#</	<	[4g#/	-ły	.
!	!	!LO:MO:null:mod=[[	!	!	!
.	2c##<X 2A#< 2G#< 2E</	[	8g#/]	.	.
.	.	.	8r	.	.
.	.	.	4r	.	.
=6	=6	=6	=6	=6	=6
*	*^	*	*	*	*
4GG#] 4GGG#\]	4d#< 4B< 4G#< 4D#</	2ryyyy	.	8r	.	.
!	!	!	!	!	!LO:MO:mod=na	!
.	.	.	.	8g#/	Na	.
4B 4G#\	4g# 4d#/	.	.	8b\	me	.
.	.	.	.	8dd#\	dzie-	.
4c# 4C#\	(>4g# 4e/	4ryyyy	.	4.ee\	-ciń-	.
4c# 4F#\	8g#L 8e/	4f#\	.	.	.	.
.	8a#/J	.	.	8ee\	-stwo	.
*	*v	*v	*	*	*	*
!!LO:LB:g=original
=7	=7	=7	=7	=7	=7
*^	*	*	*	*	*
4B 4F# 4BB\	2ryyyy	4b 4f# 4d#/)	.	4dd#\	siel-	.
!	!	!	!	!	!LO:MO:mod=-skie,	!
4A# 4F# 4AA#\	.	4cc# 4f# 4c#/	.	8cc#\	-skie	.
.	.	.	.	8cc#\	a-	.
!	!	!LO:SIC:s=4dd# 4b 4d#/:v	!	!	!	!
4B 4G# 4GG#\	4ryyyy	4dd# 4b 4f# 4d#/	.	(4b/	-niel-	.
!	!	!LO:SIC:s=(8dd#L [8b 8d#/:v	!	!	!	!
(8A#/L	4C#\	8dd#L [8b 8d#/	.	8a#/)	.	.
!	!	!	!	!	!LO:MO:mod=-skie,	!
!	!	!LO:SIC:s=8ee#XJ 8b] 8e#X/):v	!	!	!	!
8G#/J)	.	8ee#XJ 8b] 8e#X/	.	8g#/	-skie	.
*v	*v	*	*	*	*	*
=8	=8	=8	=8	=8	=8
!	!	!	!	!LO:MO:mod=łzy	!
4F# 4FF#\	8ff#L 8a# 8f#/	.	4f#/	Łzy	.
.	8f#/J	.	.	.	.
(4B 4C#\	(>4ee 4gn 4e/	.	8gn/	się	.
.	.	.	8g/	po-	.
4A# 4F#\)	4f# 4e/)	.	(4f#/	-la-	.
!	!	!	!LO:SIC:s=4g/):v	!	!
4B 4C#\	4ee 4g [4e/	.	4g/	.	.
=9	=9	=9	=9	=9	=9
*	*^	*	*	*	*
!	!	!	!	!	!LO:MO:mod=-ły,	!
!	!	!	!	!LO:SIC:s=4f#/:v	!	!
4A# 4F#\	4f# 4e/]	4ryyyy	.	4f#/)	-ły	.
4B 4C#\	4ee/	4g#X 4e\	.	4r	.	.
4F# 4FF#\	8f# 8e/	4A#\	.	4r	.	.
.	(8f#/L	.	.	.	.	.
4F# 4FF# 4EE\	8a#/	4A#\	.	4r	.	.
.	8g#/J	.	.	.	.	.
*	*v	*v	*	*	*	*
=10	=10	=10	=10	=10	=10
4F# 4FF# 4DD#\	4f# 4B/)	.	8r	.	.
!LO:MO:mod=*ped:null	!	!	!	!	!
*null	*	*	*	*	*
!	!LO:MO:mod=*null:null	!	!	!	!
*	*ped	*	*	*	*
!	!	!	!	!LO:MO:mod=na	!
.	.	.	8f#/	Na	.
(8B\L	(8b\L	.	8b\	mo-	.
8d#\J	8dd#\J	.	8dd#\	-ją	.
4f#\)	4ff#\)	.	4.ff#\	mło-	.
4D# 4DD#\	4f# 4B 4F#/	.	.	.	.
!LO:MO:mod=*Xped:null	!	!	!	!	!
*null	*	*	*	*	*
!	!LO:MO:mod=*null:null	!	!	!	!
*	*Xped	*	*	*	*
.	.	.	8ff#\	-dość	.
=11	=11	=11	=11	=11	=11
!	!	!LO:DY:t= :mod=%s	!	!	!
!	!	!LO:MO:mod=!LO&colon;DY&colon;ed=	!	!	!
!	!	!null	!	!	!
4C# 4CC#\	(8ff#L 8b 8f#\	f	(8ff#\L	gór-	.
!	!	!LO:MO:mod=!null:null	!	!	!
.	8gg#J 8g#\	f	8gg#\J)	.	.
4g# 4c# 4G#\	4ee 4b 4e/)	.	8.ee\	-ną	.
.	.	.	16ee\	i	.
4A# 4FF#\	(>8eeL 8a# 8e/	.	(8ee\L	chmur-	.
.	8ff#J 8f#/	.	8ff#\J)	.	.
8qBBB/	.	.	.	.	.
!	!	!	!	!LO:MO:mod=-ną,	!
4B 4F# 4BB\	4dd# 4b 4d#/)	.	4dd#\	-ną	.
=12	=12	=12	=12	=12	=12
!	!	!	!LO:TUP:a:problem=klamra łukowa, łuczek zamiast numeru	!	!
!	!	!	!LO:SIC:s=(12dd#\L:v	!	!
4B 4F# 4BB\	4dd# 4b 4f# 4d#/	.	12dd#\L	na	.
.	.	.	12ee\	.	.
!	!	!	!LO:SIC:s=12dd#\J):v	!	!
.	.	.	12dd#\J	.	.
4B 4GG#\	4dd# 4b 4g# 4d#/	.	8b/	mój	.
.	.	.	8dd#\	wiek	.
!	!	!	!LO:MO:mod=!null:null	!	!
*	*	*	*Xtuplet	*	*
!	!	!	!LO:TUP:a:problem=klamra łukowa	!	!
4A# 4E#X 4AA#\	4cc# 4a# 4e#X 4c#/	.	(12cc#\L	mę-	.
.	.	.	12dd#\	.	.
.	.	.	12cc#\J	.	.
4A# 4FF#\	4cc# 4a# 4f# 4c#/	.	8a#/)	.	.
!	!	!	!	!LO:MO:mod=-ski,	!
.	.	.	8cc#\	-ski	.
!!LO:LB:g=original
=13	=13	=13	=13	=13	=13
*^	*^	*	*	*	*
4G# 4C# 4GG# 4CC#\	2ryyyy	4cc# 4g# 4en 4c#/	2ryyyy	.	(4cc#\	wiek	.
4G#\	.	4g#/	.	.	4g#/)	.	.
*2\left	*	*	*	*	*	*	*
!	!	!	!	!	!	!LO:MO:mod=klę-	!
!LO:SIC:s=(4B/:v	!	!	!	!	!	!	!
4B/	2C#\	(4b/	2e\	.	(4b/	Klę-	.
8A#/L	.	8a#/L	.	.	8a#/)	.	.
!	!	!	!	!	!	!LO:MO:mod=-ski,	!
!LO:SIC:s=8G#/J):v	!	!	!	!	!	!	!
8G#/J	.	8g#/J)	.	.	8g#/	-ski	.
*v	*v	*	*	*	*	*	*
*	*v	*v	*	*	*	*
=14	=14	=14	=14	=14	=14
!	!	!	!	!LO:MO:mod=łzy	!
4F##X 4D#\	4d# 4c#/	.	4d#/	Łzy	.
(4G# 4AA#\	(>4cc# 4e 4c#/	.	8e/	się	.
.	.	.	8e/	po-	.
4F## 4D#\)	4d# 4c#/)	.	(4d#/	-la-	.
!	!	!	!LO:SIC:s=4e/):v	!	!
4G# 4AA#\	4cc# 4e 4c#/	.	4e/	.	.
=15	=15	=15	=15	=15	=15
*	*^	*	*	*	*
!	!	!	!	!	!LO:MO:mod=-ły,	!
!	!	!	!	!LO:SIC:s=4d#/:v	!	!
4D# 4DD#\	4d# 4c# 4F##X/	2ryyyy	.	4d#/)	-ły	.
N(8F##X\L	(>8f##X/L	.	.	4r	.	.
8A#\J	8a#/J	.	.	.	.	.
4G# 4E\	4cc#) 4g# 4c#/N)	4ryyyy	.	4r	.	.
!LO:MO:mod=!null:null	!	!	!	!	!	!
!LO:N:acc=n#	!	!	!	!	!	!
8F#XL 8FF#X\	(8a#/L	4A#\	.	4r	.	.
8EJ 8EE\	8g#/J	.	.	.	.	.
*	*v	*v	*	*	*	*
=16	=16	=16	=16	=16	=16
4F# 4FF# 4DD#\	4f# 4B/)	.	8r	.	.
!	!	!	!	!LO:MO:mod=na	!
.	.	.	8f#/	Na	.
(8B\L	(8b\L	.	8b\	mo-	.
8d#\J	8dd#\J	.	8dd#\	-ją	.
4f#\)	4ff#\)	.	4.ff#\	mło-	.
4D# 4DD#\	4f# 4B 4F#/	.	.	.	.
.	.	.	8ff#\	-dość	.
=17	=17	=17	=17	=17	=17
!	!	!	!	!LO:MO:mod=gór-	!
4C# 4CC#\	8ff#L 8b 8f#\	.	(8ff#\L	gó-	.
.	8gg#J 8g#\	.	8gg#\J)	.	.
!	!	!	!	!LO:MO:mod=-ną	!
4g# 4c# 4G#\	4ee 4b 4e\	.	8.ee\	-rną	.
.	.	.	16ee\	i	.
4A# 4FF#\	8eeL 8a# 8e\	.	(8ee\L	chmur-	.
.	8ff#J 8f#\	.	8ff#\J)	.	.
8qBBB/	.	.	.	.	.
!	!	!	!	!LO:MO:mod=-ną,	!
4B 4F# 4BB\	4dd# 4b 4d#/	.	4dd#\	-ną	.
=18	=18	=18	=18	=18	=18
*	*	*	*tuplet	*	*
!	!	!	!LO:TUP:a:problem=klamra łukowa	!	!
!	!	!	!LO:SIC:s=(12dd#\L:v	!	!
4B 4F# 4BB\	4dd# 4b 4f# 4d#/	.	12dd#\L	na	.
.	.	.	12ee\	.	.
!	!	!	!LO:SIC:s=12dd#\J):v	!	!
.	.	.	12dd#\J	.	.
4B 4GG#\	4dd# 4b 4g# 4d#/	.	8b/	mój	.
.	.	.	8dd#\	wiek	.
!	!	!	!LO:TUP:a:problem=klamra łukowa	!	!
4A# 4E#X 4AA#\	4cc# 4a# 4e#X 4c#/	.	(12cc#\L	mę-	.
.	.	.	12dd#\	.	.
.	.	.	12cc#\J	.	.
4A# 4FF#\	4cc# 4a# 4f# 4c#/	.	8a#/)	.	.
!	!	!	!	!LO:MO:mod=-ski,	!
.	.	.	8cc#\	-ski	.
!!LO:LB:g=original
=19	=19	=19	=19	=19	=19
*^	*^	*	*	*	*
!	!	!	!	!	!	!LO:MO:mod=wiek	!
4G# 4C# 4GG# 4CC#\	2ryyyy	4cc# 4g# 4en 4c#/	2ryyyy	.	(4cc#\	Wiek	.
4G#\	.	4g#/	.	.	4g#/)	.	.
!	!	!	!	!	!	!LO:MO:mod=klę-	!
(4B/	2C#\	(4b/	2e\	.	(4b/	Klę-	.
8A#/L	.	8a#/L	.	.	8a#/)	.	.
!	!	!	!	!	!	!LO:MO:mod=-ski,	!
8G#/J)	.	8g#/J)	.	.	8g#/	-ski	.
*v	*v	*	*	*	*	*	*
*	*v	*v	*	*	*	*
=20	=20	=20	=20	=20	=20
!	!	!	!	!LO:MO:mod=łzy	!
4F##X 4D#\	4d# 4c#/	.	4d#/	Łzy	.
4G# 4AA#\	(>4cc# 4e 4c#/	.	8e/	się	.
.	.	.	8e/	po-	.
4F## 4D#\	4d# 4c#/)	.	(4d#/	-la-	.
!	!	!	!LO:SIC:s=4e/):v	!	!
4G# 4AA#\	(>4cc# 4e 4c#/	.	4e/	.	.
=21	=21	=21	=21	=21	=21
*^	*^	*	*	*	*
!	!	!	!	!	!	!LO:MO:mod=-ły.	!
!	!	!	!	!	!LO:SIC:s=4d#/:v	!	!
2D#/	4D#\	4d# 4c# 4F##X/)	4ryyyy	.	4d#/)	-ły	.
.	4C#\	(8f##X/L	4d#\	.	4r	.	.
.	.	8a#/J	.	.	.	.	.
2D#/	4BB\	4dd#/)	4g# 4d#\	.	4r	.	.
.	4AA#\	8e#X/L	4c#\	.	4r	.	.
!	!	!LO:SIC:s=8f##/J:v	!	!	!	!	!
.	.	8f##X/J	.	.	.	.	.
=22	=22	=22	=22	=22	=22	=22	=22
*	*	*	*	*^	*	*	*
4D#/	2.GG#\	4g#/	2.B\	.	.	8r	.	.
.	.	.	.	.	.	8g#/	Po-	.
!	!	!	!	!	!LO:MO:mod=!null:null	!	!	!
!	!	!	!	!	!LO:HP:b=2	!	!	!
!LO:SIC:s=(8.G#'/L:v	!	!	!	!	!	!	!	!
(8.G#/L	.	(8.g#'/L	.	.	<	8a#/	-la-	.
.	.	.	.	.	.	8b/	-ły	.
!LO:SIC:s=16G#'/Jk:v	!	!	!	!	!	!	!	!
!	!	!	!	!LO:MO:null:mod=.	!	!	!	!
16G#/Jk	.	16g#'/Jk	.	<	.	.	.	.
[2G#^/)	.	[2g#^/)	.	.	.	4dd#\	się	.
!	!	!	!	!LO:MO:null:mod=.	!	!	!	!
.	.	.	.	[	[	.	.	.
.	4E 4GG#\	.	4c##X 4A#\	.	.	8cc##X\	łzy	.
.	.	.	.	.	.	8a#/	me	.
*	*	*	*	*v	*v	*	*	*
=23	=23	=23	=23	=23	=23	=23	=23
4G#/]	2D# 2GG#\	4g#/]	2d# 2B\	.	4dd#\	czy-	.
!	!	!	!	!	!	!LO:MO:mod=-ste,	!
(8.G#'/L	.	(8.g#'/L	.	.	8b\	-ste	.
.	.	.	.	.	8dd#\	rzę-	.
!	!	!LO:SIC:s=16g#'/Jk:v	!	!	!	!	!
16G#'/Jk	.	16g#/Jk	.	.	.	.	.
4G#^/)	2E 2GG#\	4g#^/)	2c##X 2A#\	.	(4cc##X\	-si-	.
[4G#/	.	[4g#/	.	.	8a#/)	.	.
!	!	!	!	!	!	!LO:MO:mod=-ste,	!
.	.	.	.	.	8b\	-ste	.
=24	=24	=24	=24	=24	=24	=24	=24
!	!	!	!	!	!	!LO:MO:mod=łzy	!
4G#/]	4D# 4GG#\	4g#] 4d# 4B/	2.ryyyy	.	4dd#\	Łzy	.
!LO:SIC:s=(8.G#'/L:v	!	!	!	!	!	!	!
(8.G#/L	4r	(>8.gg#L 8.g#'>/	.	.	8b/	się	.
.	.	.	.	.	8g#/	po-	.
!LO:SIC:s=16G#'/Jk:v	!	!	!	!	!	!	!
!	!	!LO:SIC:s=16gg#Jk 16g#'>/:v	!	!	!	!	!
16G#/Jk)	.	16gg#Jk 16g#'>/)	.	.	.	.	.
!LO:MO:mod=*ped:null	!	!	!	!	!	!	!
*null	*	*	*	*	*	*	*
!	!	!LO:MO:mod=*null:null	!	!	!	!	!
*	*	*ped	*	*	*	*	*
!	!	!LO:SIC:s=2gg# 2g#^/):v	!	!	!	!	!
!LO:SIC:s=2G#^/):v	!	!	!	!	!	!	!
2G#/	4r	2gg# 2g#^/	.	.	(4.cc#\	-la-	.
!	!	!	!LO:MO:mod=!null:null	!	!	!	!
!	!	!	!LO:N:n=1:acc=n#	!	!	!	!
.	[4E [4EE\	.	[>4c#X [4G#\	.	.	.	.
.	.	.	.	.	8b\	.	.
!!LO:PB:g=original
=25	=25	=25	=25	=25	=25	=25	=25
!LO:MO:mod=*Xped:null	!	!	!	!	!	!	!
*null	*	*	*	*	*	*	*
!	!	!LO:MO:mod=*null:null	!	!	!	!	!
*	*	*Xped	*	*	*	*	*
!	!LO:TX:t=P:problem=koniec ligatury na dole	!	!	!	!	!	!
4G#/	4E] 4EE\]	4gg# 4g#/	4c#] 4G#\]	.	8cc#\L	.	.
.	.	.	.	.	8b\J)	.	.
!	!	!	!	!	!	!LO:MO:mod=-ły,	!
8.G#/L	2D# 2GG#\	8.g#/L	2d# 2B\	.	[4g#/	-ły	.
16G#/Jk	.	16g#/Jk	.	.	.	.	.
[2G#/	.	[2g#/	.	.	8g#/]	.	.
.	.	.	.	.	8r	.	.
.	4E 4GG#\	.	4c##X 4A#\	.	4r	.	.
=26	=26	=26	=26	=26	=26	=26	=26
!	!	!	!	!	!	!	!LO:MO:mod=!LO&colon;DY&colon;a&colon;i&colon;t=pp e molto ritard.
!	!	!	!	!	!	!	!LO:DY:a:t=pp e molto ritar.
!	!	!	!	!	!	!LO:MO:mod=łzy	!
4G#/]	4D# 4GG#\	4g#/]	4d# 4B\	.	4dd#\	Łzy	pp
4r	4ryy	8.g#L 8.G#/	4ryyyy	.	8b\	się	.
.	.	.	.	.	8g#/	po-	.
.	.	16g#Jk 16G#/	.	.	.	.	.
4EEE\	2ryyyy	[2g# [2c# [2G#/	2ryyyy	.	(4.cc#\	-la-	.
4GGG#\	.	.	.	.	.	.	.
.	.	.	.	.	8b\	.	.
*v	*v	*	*	*	*	*	*
*	*v	*v	*	*	*	*
=27	=27	=27	=27	=27	=27
4EEE\	4g#] 4c#] 4G#/]	.	8cc#\L	.	.
.	.	.	8b\J)	.	.
!	!	!	!	!LO:MO:mod=-ły.	!
4GGG#\	8.g#L 8.d# 8.G#/	.	[4g#/	-ły	.
.	16g#Jk 16G#/	.	.	.	.
2GG# 2GGG#\	2g# 2d# 2G#/	.	4g#/]	.	.
.	.	.	4r	.	.
=28	=28	=28	=28	=28	=28
2GG# 2GGG#\	2G#< 2D#</	.	1r	.	.
!LO:SIC:s=2GG#;< 2GGG#\:v	!	!	!	!	!
2GG# 2GGG#\	2G#< 2D#<;/	.	.	.	.
==	==	==	==	==	==
*-	*-	*-	*-	*-	*-
!!!system-decoration: <s1>{(s2,s3)}
!!!RDF**kern: > = above
!!!RDF**kern: < = below
!!!RDF**kern: N = linked
!!!filter-modern: sic -sq | shed -e "s/LO:DY:(a|b|rj)/LO:dy:$1/L" | shed -e "s/TX(.*):t=P:/tx$1:t=P:/LG" | modori -m | autostem -r | shed -e "s/yy//" | shed -k -e "s/\(y([^y])/($1/" | shed -e "s/-//B" | shed -e "s/^(\d+[\/\\]right)/$1yy/I; s/^(\d+[\/\\]left)/$1yy/I" | shed -k -e "s/:TUP:/:tup:/L" | shed -k -e “s/([^a-gA-Gn#X-])[<>]/$1/g”
!!!ENC: Katarzyna Serwa
!!!END: 2021-11-04
!!!ENC: Andrzej Kubiczek
!!!END: 2021-11-05
!!!EED-modern: Antoni Szymański
!!!END-modern: 2022-08-28
!!!YEC: Copyright 2022 Narodowy Instytut Fryderyka Chopina (https://polishscores.org)
!!!YEM: License CC-BY-4.0 (https://creativecommons.org/licenses/by/4.0)
